src/distro-icons/kdeneon.svg

<svg width="512" height="512" viewBox="0 0 512 512" fill="none" xmlns="http://www.w3.org/2000/svg">
<g clip-path="url(#clip0_22_167)">
<path d="M256 512C397.385 512 512 397.385 512 256C512 114.615 397.385 0 256 0C114.615 0 0 114.615 0 256C0 397.385 114.615 512 256 512Z" fill="url(#paint0_linear_22_167)"/>
<path opacity="0.2" fill-rule="evenodd" clip-rule="evenodd" d="M293.269 218.73L218.73 293.268L395.808 470.335C425.53 450.894 450.881 425.48 470.251 395.711L293.269 218.73Z" fill="url(#paint1_linear_22_167)"/>
<path opacity="0.2" fill-rule="evenodd" clip-rule="evenodd" d="M360.811 151.188L356.107 155.892C382.675 182.436 397.615 218.443 397.643 255.999C397.643 293.566 382.72 329.595 356.157 356.159C329.594 382.724 293.567 397.65 256 397.652C218.443 397.622 182.435 382.678 155.893 356.106L151.189 360.81L298.731 508.373C351.098 499.446 399.392 474.449 436.917 436.848C474.442 399.246 499.34 350.902 508.16 298.516L360.811 151.188Z" fill="url(#paint2_linear_22_167)"/>
<path opacity="0.2" fill-rule="evenodd" clip-rule="evenodd" d="M414.4 97.5563V97.599L402.08 109.919C440.86 148.648 462.672 201.192 462.72 255.999C462.72 283.145 457.373 310.026 446.984 335.106C436.595 360.186 421.368 382.974 402.172 402.168C382.976 421.363 360.188 436.589 335.107 446.977C310.027 457.364 283.146 462.71 256 462.708C201.191 462.657 148.647 440.842 109.92 402.058L97.5996 414.399L184.938 501.727C208.025 508.472 231.948 511.93 256 511.999C323.895 511.999 389.01 485.028 437.019 437.018C485.028 389.009 512 323.895 512 255.999C511.96 231.974 508.538 208.073 501.834 185.002L414.4 97.5563Z" fill="url(#paint3_linear_22_167)"/>
<path fill-rule="evenodd" clip-rule="evenodd" d="M256 31.997C251.809 32.0011 247.744 33.4326 244.475 36.0551C241.206 38.6777 238.927 42.3345 238.014 46.4249C194.741 50.1913 153.687 67.2322 120.467 95.2174C117.622 93.5186 114.372 92.6174 111.059 92.6084C106.166 92.6084 101.474 94.5526 98.0148 98.0121C94.5553 101.472 92.6118 106.163 92.6118 111.056C92.6191 114.364 93.5156 117.609 95.2075 120.451C67.1815 153.67 50.1075 194.74 46.3228 238.038C42.2563 238.971 38.6261 241.253 36.0248 244.515C33.4235 247.777 32.0047 251.826 32 255.998C32.0034 260.187 33.4327 264.25 36.0526 267.519C38.6725 270.788 42.3271 273.068 46.4151 273.984C50.1852 317.258 67.2308 358.311 95.2207 391.53C93.5219 394.374 92.6207 397.626 92.6118 400.939C92.6118 405.831 94.5553 410.522 98.0148 413.982C101.474 417.441 106.166 419.385 111.059 419.385C114.356 419.377 117.591 418.486 120.427 416.803C153.654 444.834 194.734 461.908 238.04 465.687C238.976 469.751 241.261 473.378 244.522 475.977C247.784 478.575 251.83 479.994 256 479.998C260.191 479.994 264.256 478.562 267.525 475.94C270.794 473.317 273.073 469.659 273.986 465.568C317.299 461.857 358.407 444.848 391.678 416.869C394.49 418.511 397.685 419.378 400.941 419.385C405.834 419.385 410.526 417.441 413.985 413.982C417.445 410.522 419.388 405.831 419.388 400.939C419.379 397.636 418.482 394.395 416.792 391.557C444.895 358.346 462.035 317.254 465.862 273.918C469.887 272.951 473.471 270.657 476.035 267.407C478.6 264.156 479.996 260.138 480 255.998C479.995 251.805 478.562 247.738 475.937 244.468C473.312 241.199 469.651 238.921 465.559 238.01C461.849 194.703 444.844 153.601 416.872 120.332C418.515 117.516 419.384 114.316 419.388 111.056C419.388 106.163 417.445 101.472 413.985 98.0121C410.526 94.5526 405.834 92.6084 400.941 92.6084C397.633 92.6158 394.389 93.5126 391.546 95.2045C358.337 67.1091 317.251 49.9737 273.92 46.1482C272.955 42.12 270.663 38.5337 267.413 35.9667C264.162 33.3996 260.142 32.0015 256 31.997V31.997ZM256 39.9026C258.796 39.9026 261.477 41.0131 263.454 42.99C265.431 44.9669 266.541 47.6487 266.541 50.4444C266.541 53.2401 265.431 55.9211 263.454 57.898C261.477 59.8748 258.796 60.9854 256 60.9854C253.204 60.9854 250.523 59.8748 248.546 57.898C246.569 55.9211 245.459 53.2401 245.459 50.4444C245.459 47.6487 246.569 44.9669 248.546 42.99C250.523 41.0131 253.204 39.9026 256 39.9026V39.9026ZM238.647 56.6498C239.923 60.232 242.276 63.3325 245.382 65.5261C248.489 67.7197 252.197 68.8999 256 68.9046C259.756 68.9007 263.421 67.75 266.505 65.6073C269.59 63.4646 271.947 60.4317 273.261 56.9136C314.147 60.5104 352.94 76.5819 384.392 102.952C383.15 105.474 382.501 108.245 382.494 111.056C382.494 115.948 384.438 120.64 387.897 124.1C391.357 127.559 396.049 129.503 400.941 129.503C403.765 129.502 406.551 128.853 409.084 127.605C435.469 159.043 451.558 197.828 455.176 238.71C451.638 240.013 448.585 242.368 446.427 245.459C444.27 248.55 443.11 252.228 443.106 255.998C443.11 259.753 444.26 263.418 446.403 266.503C448.545 269.587 451.578 271.944 455.096 273.258C451.499 314.15 435.423 352.949 409.045 384.402C406.524 383.156 403.753 382.503 400.941 382.492C398.519 382.492 396.12 382.969 393.882 383.896C391.644 384.823 389.61 386.181 387.897 387.894C386.184 389.607 384.825 391.641 383.898 393.879C382.971 396.118 382.494 398.516 382.494 400.939C382.499 403.754 383.148 406.53 384.392 409.055C352.961 435.447 314.181 451.546 273.301 455.173C271.997 451.634 269.639 448.579 266.546 446.421C263.452 444.263 259.772 443.105 256 443.103C252.25 443.108 248.59 444.255 245.508 446.392C242.427 448.53 240.07 451.556 238.752 455.067C197.855 451.541 159.029 435.534 127.529 409.213C128.824 406.646 129.501 403.814 129.506 400.939C129.506 398.516 129.029 396.118 128.102 393.879C127.175 391.641 125.816 389.607 124.103 387.894C122.39 386.181 120.356 384.823 118.118 383.896C115.88 382.969 113.481 382.492 111.059 382.492C108.239 382.494 105.458 383.143 102.929 384.388C76.4948 352.99 60.3454 314.228 56.6663 273.35C60.2436 272.069 63.338 269.715 65.5266 266.609C67.7152 263.503 68.8913 259.797 68.8941 255.998C68.8896 252.247 67.742 248.587 65.6045 245.506C63.467 242.424 60.441 240.067 56.9299 238.749C60.4556 197.852 76.4626 159.026 102.784 127.526C105.351 128.821 108.184 129.498 111.059 129.503C115.951 129.503 120.643 127.559 124.103 124.1C127.562 120.64 129.506 115.948 129.506 111.056C129.503 108.236 128.854 105.455 127.608 102.926C159.005 76.487 197.766 60.3326 238.647 56.6498V56.6498ZM256 95.2576C251.786 95.2586 247.699 96.7021 244.42 99.3487C241.14 101.995 238.866 105.686 237.975 109.804C202.274 114.198 169.407 131.478 145.55 158.399C121.694 185.32 108.491 220.028 108.424 255.998C108.476 291.983 121.675 326.709 145.539 353.644C169.402 380.579 202.284 397.867 238.001 402.256C238.901 406.361 241.177 410.035 244.45 412.671C247.723 415.307 251.798 416.746 256 416.75C260.216 416.748 264.304 415.303 267.584 412.653C270.864 410.004 273.137 406.312 274.025 402.19C309.726 397.797 342.593 380.515 366.45 353.594C390.306 326.673 403.509 291.968 403.576 255.998C403.524 220.012 390.325 185.285 366.461 158.35C342.598 131.415 309.716 114.127 273.999 109.739C273.099 105.634 270.823 101.959 267.55 99.3238C264.277 96.688 260.202 95.2483 256 95.2439V95.2576ZM111.059 100.528C113.855 100.528 116.536 101.638 118.513 103.615C120.489 105.592 121.6 108.273 121.6 111.069C121.6 113.864 120.489 116.546 118.513 118.523C116.536 120.5 113.855 121.611 111.059 121.611C108.263 121.611 105.582 120.5 103.605 118.523C101.628 116.546 100.518 113.864 100.518 111.069C100.518 108.273 101.628 105.592 103.605 103.615C105.582 101.638 108.263 100.528 111.059 100.528V100.528ZM400.941 100.528C403.737 100.528 406.418 101.638 408.395 103.615C410.372 105.592 411.482 108.273 411.482 111.069C411.482 113.864 410.372 116.546 408.395 118.523C406.418 120.5 403.737 121.611 400.941 121.611C398.145 121.611 395.464 120.5 393.487 118.523C391.511 116.546 390.4 113.864 390.4 111.069C390.4 108.273 391.511 105.592 393.487 103.615C395.464 101.638 398.145 100.528 400.941 100.528V100.528ZM256 103.163C258.796 103.163 261.477 104.274 263.454 106.251C265.431 108.227 266.541 110.908 266.541 113.704C266.541 116.5 265.431 119.181 263.454 121.158C261.477 123.135 258.796 124.245 256 124.245C253.204 124.245 250.523 123.135 248.546 121.158C246.569 119.181 245.459 116.5 245.459 113.704C245.459 110.908 246.569 108.227 248.546 106.251C250.523 104.274 253.204 103.163 256 103.163ZM238.765 120.266C240.097 123.758 242.458 126.763 245.536 128.883C248.614 131.003 252.263 132.138 256 132.138C259.73 132.134 263.371 131.001 266.443 128.886C269.515 126.772 271.874 123.775 273.208 120.292C306.268 124.477 336.67 140.565 358.726 165.545C380.781 190.526 392.979 222.687 393.035 256.011C392.979 289.33 380.786 321.487 358.736 346.467C336.686 371.447 306.29 387.537 273.235 391.727C271.901 388.238 269.539 385.236 266.461 383.119C263.384 381.001 259.736 379.867 256 379.868C252.272 379.871 248.632 381.003 245.56 383.116C242.488 385.228 240.128 388.221 238.792 391.702C205.734 387.517 175.334 371.432 153.278 346.454C131.223 321.477 119.025 289.319 118.965 255.998C119.017 222.676 131.209 190.514 153.26 165.532C175.31 140.549 205.708 124.457 238.765 120.266V120.266ZM256 203.292C242.022 203.292 228.616 208.844 218.731 218.728C208.847 228.613 203.294 242.019 203.294 255.998C203.294 269.976 208.847 283.381 218.731 293.266C228.616 303.15 242.022 308.704 256 308.704C269.978 308.704 283.384 303.15 293.269 293.266C303.153 283.381 308.706 269.976 308.706 255.998C308.706 242.019 303.153 228.613 293.269 218.728C283.384 208.844 269.978 203.292 256 203.292ZM50.4471 245.456C53.2427 245.456 55.9239 246.566 57.9008 248.543C59.8777 250.519 60.9882 253.202 60.9882 255.998C60.9882 258.793 59.8777 261.475 57.9008 263.451C55.9239 265.428 53.2427 266.538 50.4471 266.538C47.6514 266.538 44.9702 265.428 42.9933 263.451C41.0165 261.475 39.9059 258.793 39.9059 255.998C39.9059 253.202 41.0165 250.519 42.9933 248.543C44.9702 246.566 47.6514 245.456 50.4471 245.456V245.456ZM461.553 245.456C464.349 245.456 467.03 246.566 469.007 248.543C470.983 250.519 472.094 253.202 472.094 255.998C472.094 258.793 470.983 261.475 469.007 263.451C467.03 265.428 464.349 266.538 461.553 266.538C458.757 266.538 456.076 265.428 454.099 263.451C452.122 261.475 451.012 258.793 451.012 255.998C451.012 253.202 452.122 250.519 454.099 248.543C456.076 246.566 458.757 245.456 461.553 245.456ZM256 387.762C258.796 387.762 261.477 388.872 263.454 390.849C265.431 392.826 266.541 395.507 266.541 398.303C266.541 401.098 265.431 403.779 263.454 405.756C261.477 407.733 258.796 408.845 256 408.845C253.204 408.845 250.523 407.733 248.546 405.756C246.569 403.779 245.459 401.098 245.459 398.303C245.459 395.507 246.569 392.826 248.546 390.849C250.523 388.872 253.204 387.762 256 387.762V387.762ZM111.059 390.397C113.855 390.397 116.536 391.507 118.513 393.484C120.489 395.461 121.6 398.143 121.6 400.939C121.6 403.735 120.489 406.416 118.513 408.393C116.536 410.369 113.855 411.479 111.059 411.479C108.263 411.479 105.582 410.369 103.605 408.393C101.628 406.416 100.518 403.735 100.518 400.939C100.518 398.143 101.628 395.461 103.605 393.484C105.582 391.507 108.263 390.397 111.059 390.397V390.397ZM400.941 390.397C403.737 390.397 406.418 391.507 408.395 393.484C410.372 395.461 411.482 398.143 411.482 400.939C411.482 403.735 410.372 406.416 408.395 408.393C406.418 410.369 403.737 411.479 400.941 411.479C398.145 411.479 395.464 410.369 393.487 408.393C391.511 406.416 390.4 403.735 390.4 400.939C390.4 398.143 391.511 395.461 393.487 393.484C395.464 391.507 398.145 390.397 400.941 390.397ZM256 451.009C258.796 451.009 261.477 452.12 263.454 454.097C265.431 456.074 266.541 458.755 266.541 461.55C266.541 464.346 265.431 467.027 263.454 469.004C261.477 470.981 258.796 472.091 256 472.091C253.204 472.091 250.523 470.981 248.546 469.004C246.569 467.027 245.459 464.346 245.459 461.55C245.459 458.755 246.569 456.074 248.546 454.097C250.523 452.12 253.204 451.009 256 451.009V451.009Z" fill="#FCFCFC"/>
</g>
<defs>
<linearGradient id="paint0_linear_22_167" x1="266.667" y1="0.00201454" x2="266.667" y2="512.002" gradientUnits="userSpaceOnUse">
<stop stop-color="#1ABC9C"/>
<stop offset="1" stop-color="#2980B9"/>
</linearGradient>
<linearGradient id="paint1_linear_22_167" x1="256.002" y1="255.997" x2="488.932" y2="488.927" gradientUnits="userSpaceOnUse">
<stop/>
<stop offset="1" stop-opacity="0"/>
</linearGradient>
<linearGradient id="paint2_linear_22_167" x1="255.986" y1="256.226" x2="488.914" y2="489.155" gradientUnits="userSpaceOnUse">
<stop/>
<stop offset="1" stop-opacity="0"/>
</linearGradient>
<linearGradient id="paint3_linear_22_167" x1="255.972" y1="256.354" x2="488.901" y2="489.283" gradientUnits="userSpaceOnUse">
<stop/>
<stop offset="1" stop-opacity="0"/>
</linearGradient>
<clipPath id="clip0_22_167">
<rect width="512" height="512" fill="white"/>
</clipPath>
</defs>
</svg>

<svg width="512" height="512" fill="none" xmlns="http://www.w3.org/2000/svg">
<g clip-path="url(#a)">
<path d="M256 512c141.385 0 256-114.615 256-256S397.385 0 256 0 0 114.615 0 256s114.615 256 256 256Z" fill="url(#b)"/>
<path opacity=".2" fill-rule="evenodd" clip-rule="evenodd" d="m293.269 218.73-74.539 74.538 177.078 177.067a256.008 256.008 0 0 0 74.443-74.624L293.269 218.73Z" fill="url(#c)"/>
<path opacity=".2" fill-rule="evenodd" clip-rule="evenodd" d="m360.811 151.188-4.704 4.704a141.657 141.657 0 0 1 41.536 100.107A141.651 141.651 0 0 1 256 397.652a141.653 141.653 0 0 1-100.107-41.546l-4.704 4.704 147.542 147.563A256.002 256.002 0 0 0 508.16 298.516L360.811 151.188Z" fill="url(#d)"/>
<path opacity=".2" fill-rule="evenodd" clip-rule="evenodd" d="M414.4 97.556v.043l-12.32 12.32a206.708 206.708 0 0 1 60.64 146.08A206.709 206.709 0 0 1 256 462.708a206.706 206.706 0 0 1-146.08-60.65L97.6 414.399l87.338 87.328A256.023 256.023 0 0 0 256 511.999a256 256 0 0 0 256-256 255.965 255.965 0 0 0-10.166-70.997L414.4 97.556Z" fill="url(#e)"/>
<path fill-rule="evenodd" clip-rule="evenodd" d="M256 31.997a18.447 18.447 0 0 0-17.986 14.428 210.822 210.822 0 0 0-117.547 48.792 18.45 18.45 0 0 0-9.408-2.609 18.447 18.447 0 0 0-18.447 18.448 18.446 18.446 0 0 0 2.596 9.395 210.82 210.82 0 0 0-48.885 117.587A18.445 18.445 0 0 0 32 255.998a18.446 18.446 0 0 0 14.415 17.986A210.823 210.823 0 0 0 95.221 391.53a18.449 18.449 0 0 0-2.61 9.409 18.446 18.446 0 0 0 18.448 18.446 18.443 18.443 0 0 0 9.368-2.582 210.822 210.822 0 0 0 117.613 48.884A18.455 18.455 0 0 0 256 479.998a18.45 18.45 0 0 0 17.986-14.43 210.824 210.824 0 0 0 117.692-48.699 18.445 18.445 0 0 0 9.263 2.516 18.447 18.447 0 0 0 18.447-18.446 18.438 18.438 0 0 0-2.596-9.382 210.826 210.826 0 0 0 49.07-117.639A18.449 18.449 0 0 0 480 255.998a18.454 18.454 0 0 0-14.441-17.988 210.821 210.821 0 0 0-48.687-117.678 18.452 18.452 0 0 0 2.516-9.276 18.444 18.444 0 0 0-18.447-18.448 18.45 18.45 0 0 0-9.395 2.596A210.822 210.822 0 0 0 273.92 46.148 18.448 18.448 0 0 0 256 31.997Zm0 7.906a10.541 10.541 0 1 1 0 21.082 10.541 10.541 0 0 1 0-21.082ZM238.647 56.65A18.445 18.445 0 0 0 256 68.905a18.445 18.445 0 0 0 17.261-11.991 200.29 200.29 0 0 1 111.131 46.038 18.444 18.444 0 0 0-1.898 8.104 18.45 18.45 0 0 0 18.447 18.447c2.824-.001 5.61-.65 8.143-1.898a200.294 200.294 0 0 1 46.092 111.105 18.442 18.442 0 0 0-12.07 17.288 18.448 18.448 0 0 0 11.99 17.26 200.274 200.274 0 0 1-46.051 111.144 18.45 18.45 0 0 0-8.104-1.91 18.447 18.447 0 0 0-18.447 18.447 18.437 18.437 0 0 0 1.898 8.116 200.283 200.283 0 0 1-111.091 46.118A18.451 18.451 0 0 0 256 443.103a18.457 18.457 0 0 0-10.492 3.289 18.454 18.454 0 0 0-6.756 8.675 200.291 200.291 0 0 1-111.223-45.854 18.437 18.437 0 0 0 1.977-8.274 18.452 18.452 0 0 0-5.403-13.045 18.446 18.446 0 0 0-13.044-5.402c-2.82.002-5.601.651-8.13 1.896A200.284 200.284 0 0 1 56.666 273.35a18.446 18.446 0 0 0 12.228-17.352 18.445 18.445 0 0 0-11.964-17.249 200.286 200.286 0 0 1 45.854-111.223 18.441 18.441 0 0 0 8.275 1.977 18.45 18.45 0 0 0 18.447-18.447 18.438 18.438 0 0 0-1.898-8.13A200.284 200.284 0 0 1 238.647 56.65ZM256 95.258a18.444 18.444 0 0 0-18.025 14.546 147.576 147.576 0 0 0-129.551 146.194 147.576 147.576 0 0 0 129.577 146.258A18.446 18.446 0 0 0 256 416.75a18.445 18.445 0 0 0 18.025-14.56 147.578 147.578 0 0 0 129.551-146.192 147.57 147.57 0 0 0-129.577-146.259A18.444 18.444 0 0 0 256 95.244v.014Zm-144.941 5.27a10.54 10.54 0 1 1 .002 21.08 10.54 10.54 0 0 1-.002-21.08Zm289.882 0a10.54 10.54 0 1 1 .002 21.08 10.54 10.54 0 0 1-.002-21.08ZM256 103.163a10.541 10.541 0 1 1 0 21.083 10.541 10.541 0 0 1 0-21.083Zm-17.235 17.103A18.445 18.445 0 0 0 256 132.138a18.449 18.449 0 0 0 17.208-11.846 137.037 137.037 0 0 1 119.827 135.719 137.035 137.035 0 0 1-119.8 135.716 18.44 18.44 0 0 0-6.774-8.608A18.442 18.442 0 0 0 256 379.868a18.448 18.448 0 0 0-17.208 11.834 137.034 137.034 0 0 1-119.827-135.704 137.033 137.033 0 0 1 119.8-135.732ZM256 203.292a52.709 52.709 0 0 0-37.269 15.436 52.71 52.71 0 0 0 0 74.538A52.71 52.71 0 0 0 256 308.704a52.71 52.71 0 0 0 52.706-52.706 52.71 52.71 0 0 0-15.437-37.27A52.709 52.709 0 0 0 256 203.292ZM50.447 245.456a10.54 10.54 0 1 1 .002 21.08 10.54 10.54 0 0 1-.002-21.08Zm411.106 0a10.54 10.54 0 1 1 .002 21.08 10.54 10.54 0 0 1-.002-21.08ZM256 387.762a10.54 10.54 0 1 1 .002 21.08 10.54 10.54 0 0 1-.002-21.08Zm-144.941 2.635a10.54 10.54 0 1 1 0 21.082 10.54 10.54 0 0 1-7.454-17.995 10.54 10.54 0 0 1 7.454-3.087Zm289.882 0a10.54 10.54 0 1 1 0 21.082c-2.796 0-5.477-1.11-7.454-3.086a10.545 10.545 0 0 1 0-14.909 10.54 10.54 0 0 1 7.454-3.087ZM256 451.009a10.541 10.541 0 1 1 0 21.083 10.541 10.541 0 0 1 0-21.083Z" fill="#FCFCFC"/>
</g>
<defs>
<linearGradient id="b" x1="266.667" y1=".002" x2="266.667" y2="512.002" gradientUnits="userSpaceOnUse">
<stop stop-color="#1ABC9C"/>
<stop offset="1" stop-color="#2980B9"/>
</linearGradient>
<linearGradient id="c" x1="256.002" y1="255.997" x2="488.932" y2="488.927" gradientUnits="userSpaceOnUse">
<stop/>
<stop offset="1" stop-opacity="0"/>
</linearGradient>
<linearGradient id="d" x1="255.986" y1="256.226" x2="488.914" y2="489.155" gradientUnits="userSpaceOnUse">
<stop/>
<stop offset="1" stop-opacity="0"/>
</linearGradient>
<linearGradient id="e" x1="255.972" y1="256.354" x2="488.901" y2="489.283" gradientUnits="userSpaceOnUse">
<stop/>
<stop offset="1" stop-opacity="0"/>
</linearGradient>
<clipPath id="a">
<path fill="#fff" d="M0 0h512v512H0z"/>
</clipPath>
</defs>
</svg>
